X: 619
T: Across The Fence
R: hornpipe
M: 4/4
K: Gmajor
BABG cBcA|d2 ge dBGA|c3 d BGDB|BAAG AGEF|
GDBD GABc|d2 ge dBGB|dg (3Bcd ecAF|1 AGGF G2 z2:|2 AGGF G2 AG||
|:FDAD FGAc|BGFG DGBg|ecce dBBd|A2 ag fdcA|
DBBB Dccc|d^cde dBGB|dg (3Bcd ecAF|1 AGGF G2 AG:|2 AGGF G2 z2||
|:dggf g2bg|g2bg aged|eaag abag|fde^c d2 z2|
(3Bcd BG (3ABc AF|GDBD GABc|dg (3Bcd ecAF|AGGF G2 z2:|

